X: 1
T: Kerry Jig (as slow reel)
D:Bothy Band "Old Hag You Have Killed Me" track 4 ("Ballintore Fancy")
S:Bill Reeder <iupiper:FWI.COM> irtrad-l 2001-8-19
M:4/4
L:1/8
Q:1/4=100
K:G
c3d ecec | B3A BAGB | c3e dB~B2 | dBAB G4 :|
A3B c4 | B3A BAG2 | A2 A/B/c G3c | BcdB c3B :|

